assets/icons/home.svg

<svg width="20" height="20" viewBox="0 0 20 20" fill="none" xmlns="http://www.w3.org/2000/svg">
<path d="M7.50106 18.3333L7.2922 15.4093C7.17991 13.8372 8.42497 12.5 10.0011 12.5C11.5771 12.5 12.8222 13.8372 12.7099 15.4093L12.5011 18.3333" stroke="#7F7F7F" stroke-width="1.5"/>
<path d="M1.96079 11.0116C1.66661 9.09716 1.51952 8.14002 1.88144 7.29148C2.24336 6.44293 3.04633 5.86235 4.65225 4.70121L5.85213 3.83366C7.84988 2.38922 8.84874 1.66699 10.0013 1.66699C11.1538 1.66699 12.1527 2.38922 14.1505 3.83366L15.3503 4.70121C16.9563 5.86235 17.7592 6.44293 18.1212 7.29148C18.4831 8.14002 18.336 9.09716 18.0418 11.0116L17.791 12.644C17.3739 15.3577 17.1654 16.7147 16.1922 17.5242C15.2189 18.3337 13.796 18.3337 10.9503 18.3337H9.05232C6.20659 18.3337 4.78373 18.3337 3.81047 17.5242C2.83721 16.7147 2.62869 15.3577 2.21166 12.644L1.96079 11.0116Z" stroke="#7F7F7F" stroke-width="1.5" stroke-linejoin="round"/>
</svg>

<svg xmlns="http://www.w3.org/2000/svg" width="20" height="20" fill="none" viewBox="0 0 20 20"><path stroke="#7f7f7f" stroke-width="1.5" d="m7.501 18.333-.209-2.924a2.716 2.716 0 1 1 5.418 0l-.209 2.924"/><path stroke="#7f7f7f" stroke-linejoin="round" stroke-width="1.5" d="M1.96 11.012c-.293-1.915-.44-2.872-.079-3.72.362-.85 1.165-1.43 2.771-2.59l1.2-.868c1.998-1.445 2.997-2.167 4.15-2.167 1.152 0 2.15.722 4.148 2.167l1.2.867c1.606 1.161 2.41 1.742 2.771 2.59.362.849.215 1.806-.08 3.72l-.25 1.633c-.417 2.714-.626 4.07-1.599 4.88s-2.396.81-5.242.81H9.052c-2.845 0-4.268 0-5.242-.81-.973-.81-1.181-2.166-1.598-4.88z"/></svg>
